build-source/logos/voyage.default.svg

<svg xmlns="http://www.w3.org/2000/svg" viewBox="0 0 600 169.17"><defs><clipPath id="0"><path d="m137.09 89.2h25.517v8.01h-25.517v-8.01"/></clipPath></defs><g transform="translate(62.857-250.64)"><g clip-path="url(#0)" transform="matrix(24.41869 0 0-24.41869-3421.33 2597.93)" fill="#1c2c45"><path d="m0 0c.538 0 .892-.238 1.053-.711l.002-.009c.006-.019.015-.05-.004-.083-.021-.033-.059-.045-.086-.05-.221-.047-.769-.129-1.972-.154-.005 0-.092 0-.092 0l.014.068c.077.347.317.93 1.064.938h.021m1.636-1.425c.308.085.316.382.293.553-.172.982-.876 1.545-1.929 1.545h-.036c-.607-.007-1.114-.239-1.467-.672-.311-.383-.479-.899-.473-1.454.014-1.229.905-2.087 2.168-2.088h.03c.408.005.757.074 1.132.226.188.081.486.261.371.56-.052.134-.134.194-.267.194-.136 0-.311-.066-.449-.123-.183-.077-.509-.118-.722-.118h-.025c-.365 0-1.23.103-1.365 1.055l-.009.064h.063c1.603.031 2.3.161 2.685.256" transform="translate(160.17 95.45)"/><path d="m0 0c-.358 0-.669-.113-.9-.327-.272-.253-.434-.652-.434-1.068 0-.415.163-.813.435-1.066.231-.214.542-.328.901-.328.358 0 .669.114.899.328.273.253.435.651.435 1.066 0 .416-.163.815-.436 1.068-.23.214-.542.327-.9.327m0-3.518c-1.296 0-2.201.866-2.201 2.107 0 1.241.905 2.107 2.201 2.107 1.296 0 2.201-.866 2.201-2.107 0-1.241-.905-2.107-2.201-2.107" transform="translate(144.3 95.43)"/><path d="m0 0c-.236 0-.428.192-.428.428 0 .091.028.178.082.251l1.854 2.594c.068.098.069.229 0 .326l-1.85 2.617c-.054.074-.082.161-.082.252 0 .236.192.428.428.428.221 0 .306-.119.446-.317l2.046-2.896c.105-.148.105-.346 0-.494l-2.05-2.872c-.14-.197-.224-.317-.446-.317" transform="translate(147.08 89.2)"/><path d="m0 0c-.156 0-.295.086-.365.225l-1.657 3.353c-.057.116-.054.274.009.394.039.075.087.121.165.161.057.028.115.043.172.043.05 0 .103-.012.155-.035.089-.038.173-.118.216-.203l1.368-2.744c.019-.037.053-.059.093-.063.003 0 .006 0 .009 0 .037 0 .071.018.093.047.039.055.078.111.12.171.448.679.721 1.376.976 2.487.058.252.251.342.398.342.024 0 .049-.002.073-.007.12-.023.213-.08.269-.163.056-.084.072-.194.047-.32-.304-1.515-.734-2.441-1.643-3.54-.078-.094-.192-.148-.314-.148h-.184" transform="translate(139.6 91.93)"/><path d="m0 0c-.031 0-.06-.015-.077-.04l-.824-1.242c-.026-.04-.018-.089 0-.121l.005-.008c.021-.03.057-.048.095-.048h1.472c.033 0 .064.018.08.046.017.028.018.063.002.092 0 0-.175.314-.343.633-.156.293-.304.591-.329.639-.017.029-.045.047-.077.049h-.005m1.937-2.936c-.131 0-.25.06-.328.164-.111.149-.352.562-.352.562h-2.223c-.12 0-.233.058-.304.154l-.412.566c-.088.121-.096.282-.021.411l.002.004c.011.021.021.038.031.053l1.383 2.086c.076.108.201.173.333.173.0001 0 .02 0 .03 0 .141-.011.27-.096.334-.223.067-.13 1.244-2.402 1.766-3.169.031-.045.066-.108.085-.148.043-.089.065-.167.065-.233 0-.032-.003-.061-.009-.093-.021-.107-.057-.165-.136-.225-.071-.053-.156-.081-.244-.081" transform="translate(151.42 94.86)"/><path d="m0 0c-.201 0-.364.165-.364.366 0 .2.163.364.364.364h.824c.297 0 .52-.218.52-.507v-1.027c0-.538-.659-.944-1.533-.944-.669 0-1.174.183-1.589.576-.394.372-.619.924-.619 1.512 0 .778.258 1.35.789 1.75.443.328 1.01.377 1.303.377.07 0 .122-.003.144-.005.009 0 .014 0 .016 0 .065-.002.634-.017 1.068-.15.157-.046.266-.187.266-.349 0-.025-.003-.068-.007-.082-.051-.188-.15-.276-.321-.284-.035-.004-.129.003-.223.022-.237.049-.518.083-.683.083h-.051c-.433 0-1.441-.123-1.441-1.27 0-1.25.853-1.437 1.361-1.437.373 0 .772.172.772.429v.427c0 .051-.035.149-.152.149h-.444" transform="translate(156.29 93.66)"/></g></g></svg>

<?xml version="1.0" encoding="UTF-8" standalone="no"?>
<!-- Created with Inkscape (http://www.inkscape.org/) -->

<svg
   xmlns:dc="http://purl.org/dc/elements/1.1/"
   xmlns:cc="http://creativecommons.org/ns#"
   xmlns:rdf="http://www.w3.org/1999/02/22-rdf-syntax-ns#"
   xmlns:svg="http://www.w3.org/2000/svg"
   xmlns="http://www.w3.org/2000/svg"
   version="1.1"
   width="600"
   height="169.16782"
   id="svg125832">
  <defs
     id="defs125834">
    <clipPath
       id="clipPath68137">
      <path
         d="m 137.091,89.199 25.517,0 0,8.013 -25.517,0 0,-8.013 z"
         id="path68139" />
    </clipPath>
  </defs>
  <metadata
     id="metadata125837">
    <rdf:RDF>
      <cc:Work
         rdf:about="">
        <dc:format>image/svg+xml</dc:format>
        <dc:type
           rdf:resource="http://purl.org/dc/dcmitype/StillImage" />
        <dc:title></dc:title>
      </cc:Work>
    </rdf:RDF>
  </metadata>
  <g
     transform="translate(62.857105,-250.63546)"
     id="layer1">
    <g
       transform="matrix(24.418692,0,0,-24.418692,-3421.328,2597.9263)"
       id="g68133">
      <g
         clip-path="url(#clipPath68137)"
         id="g68135">
        <g
           transform="translate(160.1713,95.453003)"
           id="g68141">
          <path
             d="M 0,0 C 0.538,0 0.892,-0.238 1.053,-0.711 L 1.055,-0.72 C 1.061,-0.739 1.07,-0.77 1.051,-0.803 1.03,-0.836 0.992,-0.848 0.965,-0.853 0.744,-0.9 0.196,-0.982 -1.007,-1.007 c -0.005,0 -0.092,10e-4 -0.092,10e-4 l 0.014,0.068 c 0.077,0.347 0.317,0.93 1.064,0.938 L 0,0 z M 1.636,-1.425 C 1.944,-1.34 1.952,-1.043 1.929,-0.872 1.757,0.11 1.053,0.673 0,0.673 l -0.036,0 C -0.643,0.666 -1.15,0.434 -1.503,0.001 -1.814,-0.382 -1.982,-0.898 -1.976,-1.453 -1.962,-2.682 -1.071,-3.54 0.192,-3.541 l 0.03,10e-4 c 0.408,0.005 0.757,0.074 1.132,0.226 0.188,0.081 0.486,0.261 0.371,0.56 C 1.673,-2.62 1.591,-2.56 1.458,-2.56 1.322,-2.56 1.147,-2.626 1.009,-2.683 0.826,-2.76 0.5,-2.801 0.287,-2.801 l -0.025,0 c -0.365,0 -1.23,0.103 -1.365,1.055 l -0.009,0.064 0.063,10e-4 c 1.603,0.031 2.3,0.161 2.685,0.256"
             id="path68143"
             style="fill:#1c2c45;fill-opacity:1;fill-rule:nonzero;stroke:none" />
        </g>
        <g
           transform="translate(144.29871,95.4301)"
           id="g68145">
          <path
             d="m 0,0 c -0.358,0 -0.669,-0.113 -0.9,-0.327 -0.272,-0.253 -0.434,-0.652 -0.434,-1.068 0,-0.415 0.163,-0.813 0.435,-1.066 0.231,-0.214 0.542,-0.328 0.901,-0.328 0.358,0 0.669,0.114 0.899,0.328 0.273,0.253 0.435,0.651 0.435,1.066 0,0.416 -0.163,0.815 -0.436,1.068 C 0.67,-0.113 0.358,0 0,0 m 0,-3.518 c -1.296,0 -2.201,0.866 -2.201,2.107 0,1.241 0.905,2.107 2.201,2.107 1.296,0 2.201,-0.866 2.201,-2.107 0,-1.241 -0.905,-2.107 -2.201,-2.107"
             id="path68147"
             style="fill:#1c2c45;fill-opacity:1;fill-rule:nonzero;stroke:none" />
        </g>
        <g
           transform="translate(147.0775,89.199005)"
           id="g68149">
          <path
             d="m 0,0 c -0.236,0 -0.428,0.192 -0.428,0.428 0,0.091 0.028,0.178 0.082,0.251 l 1.854,2.594 c 0.068,0.098 0.069,0.229 0,0.326 l -1.85,2.617 c -0.054,0.074 -0.082,0.161 -0.082,0.252 0,0.236 0.192,0.428 0.428,0.428 0.221,0 0.306,-0.119 0.446,-0.317 L 2.496,3.683 c 0.105,-0.148 0.105,-0.346 0,-0.494 L 0.446,0.317 C 0.306,0.12 0.222,0 0,0"
             id="path68151"
             style="fill:#1c2c45;fill-opacity:1;fill-rule:nonzero;stroke:none" />
        </g>
        <g
           transform="translate(139.5995,91.925705)"
           id="g68153">
          <path
             d="m 0,0 c -0.156,0 -0.295,0.086 -0.365,0.225 l -1.657,3.353 c -0.057,0.116 -0.054,0.274 0.009,0.394 0.039,0.075 0.087,0.121 0.165,0.161 0.057,0.028 0.115,0.043 0.172,0.043 0.05,0 0.103,-0.012 0.155,-0.035 0.089,-0.038 0.173,-0.118 0.216,-0.203 L 0.063,1.194 C 0.082,1.157 0.116,1.135 0.156,1.131 c 0.003,0 0.006,0 0.009,0 0.037,0 0.071,0.018 0.093,0.047 0.039,0.055 0.078,0.111 0.12,0.171 0.448,0.679 0.721,1.376 0.976,2.487 0.058,0.252 0.251,0.342 0.398,0.342 0.024,0 0.049,-0.002 0.073,-0.007 C 1.945,4.148 2.038,4.091 2.094,4.008 2.15,3.924 2.166,3.814 2.141,3.688 1.837,2.173 1.407,1.247 0.498,0.148 0.42,0.054 0.306,0 0.184,0 L 0,0 0,0"
             id="path68155"
             style="fill:#1c2c45;fill-opacity:1;fill-rule:nonzero;stroke:none" />
        </g>
        <g
           transform="translate(151.422,94.858398)"
           id="g68157">
          <path
             d="m 0,0 c -0.031,0 -0.06,-0.015 -0.077,-0.04 l -0.824,-1.242 c -0.026,-0.04 -0.018,-0.089 0.001,-0.121 l 0.005,-0.008 c 0.021,-0.03 0.057,-0.048 0.095,-0.048 l 1.472,0 c 0.033,0.001 0.064,0.018 0.08,0.046 0.017,0.028 0.018,0.063 0.002,0.092 0,0 -0.175,0.314 -0.343,0.633 C 0.255,-0.395 0.107,-0.097 0.082,-0.049 0.065,-0.02 0.037,-0.002 0.005,0 L 0,0 z m 1.937,-2.936 c -0.131,0 -0.25,0.06 -0.328,0.164 -0.111,0.149 -0.352,0.562 -0.352,0.562 l -2.223,0 c -0.12,0 -0.233,0.058 -0.304,0.154 l -0.412,0.566 c -0.088,0.121 -0.096,0.282 -0.021,0.411 l 0.002,0.004 c 0.011,0.021 0.021,0.038 0.031,0.053 l 1.383,2.086 c 0.076,0.108 0.201,0.173 0.333,0.173 0.01,0 0.02,-0.001 0.03,-0.001 C 0.217,1.225 0.346,1.14 0.41,1.013 0.477,0.883 1.654,-1.389 2.176,-2.156 2.207,-2.201 2.242,-2.264 2.261,-2.304 2.304,-2.393 2.326,-2.471 2.326,-2.537 2.326,-2.569 2.323,-2.598 2.317,-2.63 2.296,-2.737 2.26,-2.795 2.181,-2.855 2.11,-2.908 2.025,-2.936 1.937,-2.936"
             id="path68159"
             style="fill:#1c2c45;fill-opacity:1;fill-rule:nonzero;stroke:none" />
        </g>
        <g
           transform="translate(156.2916,93.659805)"
           id="g68161">
          <path
             d="m 0,0 c -0.201,0 -0.364,0.165 -0.364,0.366 0,0.2 0.163,0.364 0.364,0.364 l 0.824,0 c 0.297,0 0.52,-0.218 0.52,-0.507 l 0,-1.027 c 0,-0.538 -0.659,-0.944 -1.533,-0.944 -0.669,0 -1.174,0.183 -1.589,0.576 -0.394,0.372 -0.619,0.924 -0.619,1.512 0,0.778 0.258,1.35 0.789,1.75 0.443,0.328 1.006,0.377 1.303,0.377 0.07,0 0.122,-0.003 0.144,-0.005 0.009,0 0.014,0 0.016,0 C -0.08,2.46 0.489,2.445 0.923,2.312 1.08,2.266 1.189,2.125 1.189,1.963 1.189,1.938 1.186,1.895 1.182,1.881 1.131,1.693 1.032,1.605 0.861,1.597 0.826,1.593 0.732,1.6 0.638,1.619 0.401,1.668 0.12,1.702 -0.045,1.702 l -0.051,0 c -0.433,0 -1.441,-0.123 -1.441,-1.27 0,-1.25 0.853,-1.437 1.361,-1.437 0.373,0 0.772,0.172 0.772,0.429 l 0,0.427 C 0.595,-0.098 0.561,0 0.444,0 L 0,0"
             id="path68163"
             style="fill:#1c2c45;fill-opacity:1;fill-rule:nonzero;stroke:none" />
        </g>
      </g>
    </g>
  </g>
</svg>
